X:1
T:Magnetic Rag
T:Magnetic Rag (1914)
T:From the King of Ragtime, Composer of "Maple Leaf Rag"  and "The Entertainer"
T:Scott Joplin 
T:Arranged 2020-05-26 by FarrierPete
T:© Creative Commons - Attribution - Non commercial - Share Alike - Arranged 2020-05-26 by FarrierPete
T:© Creative Commons - Attribution - Non commercial - Share Alike - Arranged 2020-05-26 by FarrierPete
T:© Creative Commons - Attribution - Non commercial - Share Alike - Arranged 2020-05-26 by FarrierPete
T:© Creative Commons - Attribution - Non commercial - Share Alike - Arranged 2020-05-26 by FarrierPete
T:© Creative Commons - Attribution - Non commercial - Share Alike - Arranged 2020-05-26 by FarrierPete
C:Scott Joplin
Z:Arranged 2020-05-26 by FarrierPete
Z:© Creative Commons - Attribution - Non commercial - Share Alike - Arranged 2020-05-26 by FarrierPete
%%score { ( 1 3 5 ) | ( 2 4 6 ) } { ( 7 9 11 ) | ( 8 10 12 ) }
L:1/8
Q:1/4=136
M:4/4
K:Bb
V:1 treble nm="Piano" snm="Pno."
V:3 treble 
V:5 treble 
V:2 bass 
V:4 bass 
V:6 bass 
V:7 treble nm="Piano (Reverb)" snm="PnoRev."
V:9 treble 
V:11 treble 
V:8 bass 
V:10 bass 
V:12 bass 
V:1
"^Allegretto ma non troppo"!f! F =E2 !>!_E- !>!E4 | F E2 !>!D- !>!D4 | .F.^F.G!>!^G- !>!G.A.B.=B | %3
 !>!c2 z2 !>![FAcf]2 z2 |:!mf! !1!D.!5!B.!3!G.!2!F .!1!E !3!c2 !4!^c | %5
 .!5!d.!2!F.!4!B.!1!D (!5!G !4!F3) | !>![EF] [EF]2 !>![EF]- FG [EF]2 | %7
 !>![DF] [DF]2 !>![DF]- FG [DF]2 | D.B.G.F .E c2 ^c |!<(! .d.F.B.!1!d .!2!g !4!b3!<)! | %10
 .!1!a.!3!c'.!4!d'!>!!5![^fe']- e'.d' !>!a2 |!f! !>!.c'.b.a!>!b- b3 !>!!2!!5![eb]- | %12
 [eb]2 .!3!!5![eg]2 .!2!B !>!!3!!5![df]2 !1!F | !>!!5!e2 .!5!e!>!.!5!d- .[Bd].!1!F !3!!5![df]2 | %14
 .[eb]2 .[eg]2 .B !>![df]2 .F | e2 .e!>!d- [Bd]3 !>![eb]- | [eb]2 !>![eg]2 .B !>![df]2 F | %17
 !>!e2 .e!>!d- [Bd].F [df]2 | [eb]2 [eg]2 .B !>![df]2 .F |1 !>!e2 .e!>!.d- !>!.[Bd].G.F.E :|2 %20
 e2 .ed- [Bd]2 !>![^FAd]2 |:!mf!{!2!G!1!A} .!3!B.A.G!>!.B- !>!.B.A G2 | %22
 !2!A2 !1!G!>!!2!^F- z !1!A !5!a2 |{!1!AB} .c.B.A!>!.c- !>!.c.B A2 | !3!B2 AG- z !1!d !5!b2 | %25
!<(!{GA} .B.A.G.A .!3!B !1!c2 !2!d!<)! |!f! !>!e2 d!>!c- z !1!g !5!e'2 | %27
{cd} !>!.e.d.!1!c.!4!B .A G2 .A | !>!^F2 A!>![Fd]- [Fd]4 |!mf!{GA} !>!.B.A.G!>!B- B.A G2 | %30
 !>!A2 G!>!^F- z !1!d !5!a2 |{AB} !>!.c.B.A!>!c- c.B A2 | !>!B2 A!>!G- z d b2 | %33
!<(!{GA} !>!.B.A.G.A .B c2!<)! d |!f! !>!e2 d!>!c- z !1!g !5!e'2 |{Bc} !>!.d.c.B!>!.A- .A.c.B.A |1 %36
 !>!.G.d.B.G !>!.^F.A d2 :|2 !>!G2 .A.B !>!c2- c3/2(!1!c/4!2!^c/4 |: %38
!mf! !3!d2) z2 !1!!3![Gc] !2!!4![B^c]2 !1!!3!!5![FBd]- | %39
 [FBd]2 .!1!!4![^cg]!>!.!2!!3![df]- .[df]!>!!1!!5![db]- [db]3/2(!1!=c/4!2!^c/4 | %40
 !>!!3!d2) z2 !1!!3![Gc] !>!!2!!4![B^c]2 !>!!1!!3!!5![FBd]- |"_cresc." [FBd]6 [Bdf]2 | %42
!f! [Be]2 !>!!3![Beg]2 [FB]2 !>!!3![FBd]2 | [B,E]2 !>!!3![B,EG]2 [F,B,]2 !>!!3![F,B,D]2 | %44
!mf! !>!!1!!4![^Fc] !2!!3![GB]2 !>![GB]- [GB]4 | !>!!5!d c2 !>!B- Bc G2 | %46
 !>!!1!!4![^CG] !2!!3![DF]2 !>!!1!!5![DB]- [DB]4- | [DB]2!<(! .!1!D.!2!F .!4!B.!1!c.!2!d.!4!f!<)! | %48
!f! !>!.[Aeg].=B.c!>![Aef]- [Aef]4- | [Aef]2 .g!>!.[Aef]- .[Aef].g !>![Aef]2 | %50
{B-d-} !>!.[Bdg].^c.d!>![Bdf]- [Bdf]4- | [Bdf].g.[^Gdf]!>!.[Ae]- .[Ae]f !>![Ae]3/2(!1!c/4!2!^c/4 | %52
!mf! !3!d2) z2 !1!!3![Gc] !2!!4![B^c]2 !1!!3!!5![FBd]- | %53
 [FBd]2 !1!!4![^cg]!>!!2!!3![df]- [df]!>!!1!!5![db]- [db]3/2(!1!=c/4!2!^c/4 | %54
 !>!d2) z2 [Gc] !>![B^c]2 !>!!1!!3!!5![FBd]- |"_cresc." [FBd]6 !1!!3!!5![Bdf]2 | %56
!f! [Be]2 !3![Beg]2 [FB]2 !3![FBd]2 | [B,E]2 !3![B,EG]2 [F,B,]2 !3![F,B,D]2 | %58
 !>!B, C2 !>!D- !>!.D.C B,2 | !>!d !>!c2 !>!B- !>!BA G2 | %60
{B-d-} !>!.[Bdg].f.[Bd]!>![Ae]- [Ae].f.G.A |1 !>!B2 F!>![df]- [df]F [ce]3/2(!1!c/4^c/4) :|2 %62
 B6 c2 ||[K:Db]"^Tempo l'istesso" d6 .B.c | d6 .B.c |: %65
!mf! !1!d!<(!.!2!f.!4!b.!5!d' !1!e.!2!g.!3!b!<)!.!5!e' | %66
 z !2!!4!!5![fbd']- [fbd'][f=ac'] [fb]2 B2 |!mf! !>!=A2"_cresc." =G!>!_G- G=G =A2 | %68
 !>!c2 B!>!=A- AB c2 | =B2 c4 d2 | =d2 e2 =e2 f2 | [Gcg]2 [Bce]4 [Bc=e]2 |!ff! f8 | %73
!mf! !>!!1!d!<(!.!2!f.!4!b.!5!d' !>!!1!e.!2!g.!3!b!<)!.!5!e' | %74
 z !>!!2!!4!!5![fbd']- [fbd'] [f=ac'] [fb]2 [fc']2 | %75
!mf! !>![dfd'].[cc'].[dd']!>!.[ee']- .[ee'].[dd'] [Bb]2 | !>!.b.a.gf- f.a f2 | !>!!5!c'8 | %78
 !>!!5!c'4- !>!c'2 !>![F_Acf]2 |1!f! [_GB_e_g]2 [FBdf]2 .[=ac'].a.f[fb]- | [dfb].f.d.B .=A.B c2 :|2 %81
!f! =df c2 =edef- | f_ec=A F _E2 F |:[K:Bb] .D.B.G.F .E c2 ^c | .d.F.B.D .G F3 | %85
 !>![EF] [EF]2 !>![EF]- FG [EF]2 | !>![DF] [DF]2 !>![DF]- FG [DF]2 | .D.B.G.F .E c2 ^c | %88
!<(! .d.F.B.d .g b3!<)! | .a.c'.d'!>![^fe']- e'.d' a2 |!f! .c'.b.a.b- b3 !>![eb]- | %91
 [eb]2 [eg]2 .B !>![df]2 F | !>!e2 .ed- [Bd]F [df]2 | !>![eb]2 [eg]2 .B !>![df]2 .F | %94
 !>!e2 .e!>!d- [Bd]3 !>![eb]- | [eb]2 !>![eg]2 .B !>![df]2 .F | !>!e2 .e!>!d- [Bd].F [df]2 | %97
 .!2!!5![eb]2 .!3!!5![eg]2 .!2!B !3!!5![df]2 !1!F |1 !>!e2 .e!>!d- [Bd].G.F.E :|2 %99
 e2 .ed- [Bd]2 .!1!d.!2!e || !3!f2 !4!g4 !3!_g2 | %101
 .!2!_g.!1!f.!3!b!1!!3!!5![fbd']- [fbd'].!1!!4![db] !1!!3!!5![eac']2 | %102
 !1!!4![db]2 .!2!f.!4!b .!1!d.!3!f.!2!B.!4!d | !1!F2 .!3!F.!2!=E !3!F2 .!1!D.!2!_E | %104
 !3!F2 !4!G4 !3!_G2 | .!2!_G.F.B[FBd]- [FBd].[DB] [EAc]2 | z2 .!3!f.!5!b .!2!=e.!5!b.!2!_e.!5!b | %107
 [Bdb]2 z2 !>!!fermata![Bdfb]2 z2 | z8 | z8 |] %110
V:2
 F, =E,2 !>!_E,- !>!E,4 | F, E,2 !>!D,- !>!D,4 | .F,.^F,.G,!>!^G,- !>!G,.A,.B,.=B, | %3
 !>!C2 z2 !>![F,,F,]2 z2 |: z2 [F,B,]2 z2 [F,A,]2 | !>!B,,2 [F,B,]2 !>!B,,2 [F,B,]2 | %6
 !>!A,,2 [F,A,]2 !>!F,,2 [F,A,]2 | !>!B,,2 [F,B,]2 !>!F,,2 [F,B,]2 | z2 [F,B,]2 z2 [F,A,]2 | %9
 !>!B,,2 [F,B,]2 !>![B,,B,]2 !>![G,,G,]2 | !>![^F,,^F,]2 [F,CD]2 !>![D,,D,]2 [F,CD]2 | %11
"^sempre" !>![G,,G,]2 [G,B,D]2 !>![D,,D,]2 [G,B,D]2 | %12
 !>![G,,G,]2 !>![E,,E,]2 !>![D,,D,]2 [F,B,D]2 | !>![F,,F,]2 [F,A,E]2 !>![B,,B,]2 !>![_A,,_A,]2 | %14
 !>![G,,G,]2 !>![E,,E,]2 !>![D,,D,]2 [F,B,D]2 | !>![F,,F,]2 [F,A,E]2 !>![B,,B,]2 !>![F,,F,]2 | %16
 !>![G,,G,]2 !>![E,,E,]2 !>![D,,D,]2 [F,B,D]2 | !>![F,,F,]2 [F,A,E]2 !>![B,,B,]2 !>![_A,,_A,]2 | %18
 !>![G,,G,]2 !>![E,,E,]2 !>![D,,D,]2 [F,B,D]2 |1 !>![F,,F,]2 [F,A,E]2 !>![B,,B,]2 [F,A,]2 :|2 %20
 !>![F,,F,]2 [F,A,E]2 !>![B,,B,]2 !>![D,,D,]2 |: !>![G,,G,]2 [G,B,D]2 !>![D,,D,]2 [G,B,D]2 | %22
 !>![^F,,^F,]2 [F,CD]2 !>![D,,D,]2 [F,CD]2 | !>![A,,A,]2 [^F,CD]2 !>![D,,D,]2 [^F,,F,]2 | %24
 !>![G,,G,]2 [G,B,D]2 !>![B,,,B,,]2 [D,,D,]2 | !>![G,,G,]2 [G,B,D]2 !>![D,,D,]2 [G,B,D]2 | %26
 !>![C,,C,]2 [G,CE]2 !>![E,,E,]2 [G,CE]2 | !>![C,,C,]2 [G,A,E]2 !>![E,,E,]2 [G,A,C]2 | %28
 !>![D,,D,]2 !>![C,C]2 !>![B,,B,]2 !>![A,,A,]2 | !>![G,,G,]2 [G,B,D]2 !>![D,,D,]2 [G,B,D]2 | %30
 !>![^F,,^F,]2 [F,CD]2 !>![D,,D,]2 [F,CD]2 | !>![A,,A,]2 [^F,CD]2 !>![D,,D,]2 [^F,,F,]2 | %32
 !>![G,,G,]2 [G,B,D]2 !>![B,,,B,,]2 !>![D,,D,]2 | !>![G,,G,]2 [G,B,D]2 !>![D,,D,]2 [G,B,D]2 | %34
 !>![C,,C,]2 [G,CE]2 !>![E,,E,]2 [G,CE]2 | !>![D,,D,]2 [G,B,D]2 !>![D,,D,]2 [^F,CD]2 |1 %36
 !>![G,,G,]2 [G,B,D]2 !>![D,,D,]2 [^F,CD]2 :|2 !>![G,B,D]4 [A,E]4 |: %38
 !>![B,,,B,,]2 !>![D,,D,]2 !>![E,,E,]2 !>![=E,,=E,]2 | !>![F,,F,]2 !2!B,2 !>![D,,D,]2 [F,B,D]2 | %40
 !>![B,,,B,,]2 !>![D,,D,]2 !>![E,,E,]2 !>![=E,,=E,]2 | %41
 !>![F,,F,]2 .!3!B,.C[K:treble] !>!.!1!D.!4!F !2!_A3/2(!3!F/4!2!^F/4 | %42
 !>!G2-) G3/2(!3!C/4!2!^C/4 !>!D2-) D3/2[K:bass](!3!F,/4!2!^F,/4 | %43
 !>!G,2-) G,3/2(!3!C,/4!2!^C,/4 !>!D,4) | !>![E,,E,]2 [G,B,E]2 !>![B,,,B,,]2 [G,B,E]2 | %45
 !>![E,,E,]2 [G,B,E]2 !>![G,,G,]2 !>![E,,E,]2 | !>![B,,,B,,]2 [F,B,]2 !>!F,,2 [F,B,]2 | %47
 !>![B,,,B,,]2 [F,B,]2 !>![D,,D,]2 !>![=B,,,=B,,]2 | %48
 !>![C,,C,]2 [F,A,E]2 !>![F,,F,]2 !>![=B,,=B,]2 | !>![C,C]2 [F,A,E]2 !>![F,,F,]2 [F,A,E]2 | %50
 !>![B,,B,]2 [F,B,D]2 !>![F,,F,]2 [F,B,D]2 | !>![D,,D,]2 !>![=B,,,=B,,]2 !>![C,,C,]2 [F,A,E]2 | %52
 !>![B,,,B,,]2 !>![D,,D,]2 !>![E,,E,]2 !>![=E,,=E,]2 | !>![F,,F,]2 !2!B,2 !>![D,,D,]2 [F,B,D]2 | %54
 !>![B,,,B,,]2 !>![D,,D,]2 !>![E,,E,]2 !>![=E,,=E,]2 | %55
 !>![F,,F,]2 !>!!3!B,!>!!2!C[K:treble] !>!!1!D!>!!4!F !>!!2!_A3/2(!3!F/4!2!^F/4 | %56
 !>!G2-) G3/2(!3!C/4!2!^C/4 !>!D2-) D3/2[K:bass](!3!F,/4!2!^F,/4 | %57
 !>!G,2-) G,3/2(!3!C,/4!2!^C,/4 !>!D,4) | !>!G,, A,,2 !>!B,,- !>!.B,,.C, D,2 | %59
 !>!B, !>!x2 !>!G,- !>!G,F, [=E,B,^C]2 | !>![F,,F,]2 [F,B,D]2 !>![F,,F,]2 [F,A,E]2 |1 %61
 !>![B,,B,]2 [F,B,D]2 !>![F,,F,]2 [F,A,E]2 :|2 !>![B,,B,]2 !>![F,,F,]2 !>![G,,G,]2 !>![A,,A,]2 || %63
[K:Db] !>![B,,B,]2 [F,B,D]2 !>![F,,F,]2 [F,B,D]2 | !>![B,,B,]2 [F,B,D]2 !>![F,,F,]2 [F,B,D]2 |: %65
 z2 [F,B,D]2 z2 [G,B,E]2 | !>![F,,F,]2 !>![E,,E,]2 z2 [F,B,D]2 | %67
 !>!_G,2"_cresc." =G,!>!=A,- A,G, _G,2 | !>!=A,2 B,!>!C- CB, =A,2 | _A,2 =A,4 B,2 | %70
 =B,2 C2 _D2 =D2 | [B,E]2 [G,C]4 [G,C]2 | !>!C2 .E.D !>!.C.D C2 | z2 [F,B,D]2 z2 [G,B,E]2 | %74
 !>![F,,F,]2 !>![E,,E,]2 !>![D,,D,]2 !>![=A,,,=A,,]2 | %75
 !>![B,,,B,,]2 [F,B,D]2 !>![G,,G,]2 [G,B,E]2 | !>![A,,A,]2 [A,CG]2 !>![D,,D,]2 [A,DF]2 | %77
[K:treble] !>!!1!c8 | !>!!1!c4- c2[K:bass] !>![F,,F,]2 |1 %79
 !>![_E,,_E,]2 !>![F,,F,]2 !>![F,,F,]2 [F,=A,E]2 | !>![B,,B,]2 [F,B,D]2 !>![C,C]2 [F,=A,E]2 :|2 %81
 !>![=B,,,=B,,]2 !>![C,,C,]2 !>![C,,C,]2 [=G,B,C]2 | %82
 !>![F,,F,]2 !>![_E,,_E,]2 !>![=D,,=D,]2 !>![C,,C,]2 |:[K:Bb] z2 [F,B,]2 z2 [F,A,]2 | %84
 !>!B,,2 [F,B,]2 !>!B,,2 [F,B,]2 | !>!A,,2 [F,A,]2 !>!F,,2 [F,A,]2 | %86
 !>!B,,2 [F,B,]2 !>!F,,2 [F,B,]2 | z2 [F,B,]2 z2 [F,A,]2 | %88
 !>!B,,2 [F,B,]2 !>![B,,B,]2 !>![G,,G,]2 | !>![^F,,^F,]2 [F,CD]2 !>![D,,D,]2 [F,CD]2 | %90
"^sempre" !>![G,,G,]2 [G,B,D]2 !>![D,,D,]2 [G,B,D]2 | %91
 !>![G,,G,]2 !>![E,,E,]2 !>![D,,D,]2 [F,B,D]2 | !>![F,,F,]2 [F,A,E]2 !>![B,,B,]2 !>![_A,,_A,]2 | %93
 !>![G,,G,]2 !>![E,,E,]2 !>![D,,D,]2 [F,B,D]2 | !>![F,,F,]2 [F,A,E]2 !>![B,,B,]2 !>![F,,F,]2 | %95
 !>![G,,G,]2 !>![E,,E,]2 !>![D,,D,]2 [F,B,D]2 | !>![F,,F,]2 [F,A,E]2 !>![B,,B,]2 !>![_A,,_A,]2 | %97
 !>![G,,G,]2 !>![E,,E,]2 !>![D,,D,]2 [F,B,D]2 |1 !>![F,,F,]2 [F,A,E]2 !>![B,,B,]2 [F,A,]2 :|2 %99
 !>![F,,F,]2 [F,A,E]2 !>![B,,B,]2[K:treble] .!3!B.!2!c || !1!d2 !2!e4 e2 | %101
 !>!!2!e !1!d3 !>!!4!F2 [F,F]2 | !>!!3!!1![B,F]2 !2!d2 !>!!4!B2 !1!F2 | %103
[K:bass] !>!!2!D2 .!2!D.!3!^C !>!!2!D2 .!3!B,.!2!=C | !>!!1!D2 !2!E4 E2 | %105
 !>!!2!E !1!D3 !>!!4!F,2 [F,,F,]2 | !>![B,,B,]8- | %107
!>(! !>![B,,B,]2!>)! z2 !>!!fermata![B,,,B,,]2 z2 | z8 | z8 |] %110
V:3
 x8 | x8 | x8 | x8 |: D4- E4 | D4 !2!^C !1!D3 | x4 E2 x2 | x4 D2 x2 | D4- E4 | D4 d4 | x4 f2 ^f2 | %11
 .g4- g3 x | e.!1!B.e.!1!G .B x x F | .!3!c.!1!G.!2!A.!3!B- x4 | e.B.e.G .B x2 F | .c.G.AB- x4 | %16
 e.B.e.G .B x2 F | .c.G.AB- x4 | .e.B.e.G .B x2 F |1 c.G.A.B- x4 :|2 .c.G.AB- x4 |: x8 | x4 !>!F4 | %23
 x8 | x4 G4 | x8 | x4 c4 | x8 | x8 | x8 | x4 F4 | x8 | x4 G4 | x8 | x4 c4 | x8 |1 x8 :|2 x8 |: x8 | %39
 x8 | x8 | x8 | !3!g!5!b x2 !3!d!5!f x2 | !3!G!5!B x2 !3!D!5!F x2 | x8 | !1!G3 G- G2 x2 | x8 | x8 | %48
 x8 | x8 | x8 | x8 | x8 | x8 | x8 | x8 | !>!!3!g!5!b x2 !>!!3!d!5!f x2 | %57
 !>!!3!G!5!B x2 !>!!3!D!5!F x2 | x8 | x8 | x8 |1 x8 :|2 x8 ||[K:Db] x8 | x8 |: d4 e4 | d3 c B2 F2 | %67
 [CE]8 | [E_G]8 | x8 | x8 | x8 | [=Ac]2 .c.B !>!.=A.B A2 | d4 e4 | d3 c B2 c2 | x8 | %76
 [cg]3 !>!d- d2 d2 | !2!f !1!=e2 !2!f- f!3!=g !4!a2 | !1!=e !3!=g2 !2!f- f2 x2 |1 x4 e3 d- | x8 :|2 %81
 [F_A]2 [F=A]2 [=E_B]2 [EB][F=A]- | [FA]4 F E2 F |:[K:Bb] !>!D4- !>!E4 | D4 .^C D3 | x4 E2 x2 | %86
 z4 D2 x2 | D4- E4 | D4 d4 | x4 f2 [^fa]2 | g4- g3 x | e.B.e.G .B x2 F | .c.G.A!>!B- x4 | %93
 .e.B.e.G .B x2 F | .c.G.AB- x4 | e.B.e.G .B x2 F | .c.G.AB- x4 | e.!1!Be.!1!G B x2 F |1 %98
 .c.G.AB- x4 :|2 .c.G.AB- x4 || x8 | x8 | x8 | x8 | x8 | x8 | !1!D2 [Bf]2 [B=e]2 [B_e]2 | x8 | x8 | %109
 x8 |] %110
V:4
 x8 | x8 | x8 | x8 |: !>!B,,4 !>!C,4 | x8 | x8 | x8 | !>!B,,4 !>!C,4 | x8 | x8 | x8 | x8 | x8 | %14
 x8 | x8 | x8 | x8 | x8 |1 x8 :|2 x8 |: x8 | x8 | x8 | x8 | x8 | x8 | x8 | x8 | x8 | x8 | x8 | x8 | %33
 x8 | x8 | x8 |1 x8 :|2 x4 F,2 !>![F,,F,]2 |: x8 | x8 | x8 | x4[K:treble] x4 | x15/2[K:bass] x/ | %43
 x8 | x8 | x8 | x8 | x8 | x8 | x8 | x8 | x8 | x8 | x8 | x8 | x4[K:treble] x4 | x15/2[K:bass] x/ | %57
 x8 | x8 | x8 | x8 |1 x8 :|2 x8 ||[K:Db] x8 | x8 |: !>![B,,B,]4 !>![G,,G,]4 | x4 !>![D,,D,]4 | %67
 C,8 | E,8 | x8 | x8 | x8 | F,8 | !>![B,,B,]4 !>![G,,G,]4 | x8 | x8 | x8 | %77
[K:treble] !3!A !4!=G2 !>!!3!A- A!2!B !1!c2 | !4!=G !2!B2 !3!A- !>!A2[K:bass] x2 |1 x8 | x8 :|2 %81
 x8 | x8 |:[K:Bb] !>!B,,4 !>!C,4 | x8 | x8 | x8 | !>!B,,4 !>!C,4 | x8 | x8 | x8 | x8 | x8 | x8 | %94
 x8 | x8 | x8 | x8 |1 x8 :|2 x6[K:treble] x2 || x8 | x8 | x8 |[K:bass] x8 | x8 | x8 | F,2 z6 | %107
 !>!F2 x4 x2 | x8 | x8 |] %110
V:5
 x8 | x8 | x8 | x8 |: x8 | x8 | x8 | x8 | x8 | x8 | x8 | x8 | x8 | x8 | x8 | x8 | x8 | x8 | x8 |1 %19
 x8 :|2 x8 |: x8 | x8 | x8 | x8 | x8 | x8 | x8 | x8 | x8 | x8 | x8 | x8 | x8 | x8 | x8 |1 x8 :|2 %37
 x8 |: x8 | x8 | x8 | x8 | x8 | x8 | x8 | x8 | x8 | x8 | x8 | x8 | x8 | x8 | x8 | x8 | x8 | x8 | %56
 x8 | x8 | x8 | x8 | x8 |1 x8 :|2 x8 ||[K:Db] x8 | x8 |: x8 | x8 | x8 | x8 | x8 | x8 | x8 | x8 | %73
 x8 | x8 | x8 | x8 | x8 | x8 |1 x8 | x8 :|2 x8 | x8 |:[K:Bb] x8 | x8 | x8 | x8 | x8 | x8 | x8 | %90
 x8 | x8 | x8 | x8 | x8 | x8 | x8 | x8 |1 x8 :|2 x8 || x8 | x8 | x8 | x8 | x8 | x8 | !4!B8 | x8 | %108
 x8 | x8 |] %110
V:6
 x8 | x8 | x8 | x8 |: x8 | x8 | x8 | x8 | x8 | x8 | x8 | x8 | x8 | x8 | x8 | x8 | x8 | x8 | x8 |1 %19
 x8 :|2 x8 |: x8 | x8 | x8 | x8 | x8 | x8 | x8 | x8 | x8 | x8 | x8 | x8 | x8 | x8 | x8 |1 x8 :|2 %37
 x8 |: x8 | x8 | x8 | x4[K:treble] x4 | x15/2[K:bass] x/ | x8 | x8 | x8 | x8 | x8 | x8 | x8 | x8 | %51
 x8 | x8 | x8 | x8 | x4[K:treble] x4 | x15/2[K:bass] x/ | x8 | x8 | x8 | x8 |1 x8 :|2 x8 || %63
[K:Db] x8 | x8 |: x8 | x8 | x8 | x8 | x8 | x8 | x8 | x8 | x8 | x8 | x8 | x8 |[K:treble] x8 | %78
 x6[K:bass] x2 |1 x8 | x8 :|2 x8 | x8 |:[K:Bb] x8 | x8 | x8 | x8 | x8 | x8 | x8 | x8 | x8 | x8 | %93
 x8 | x8 | x8 | x8 | x8 |1 x8 :|2 x6[K:treble] x2 || x8 | x8 | x8 |[K:bass] x8 | x8 | x8 | %106
 x2 (!>!_A2 !>!G2 !>!_G2) | x8 | x8 | x8 |] %110
V:7
 z/8!f! F =E2 !>!_E- !>!E31/8- | E/8 F E2 !>!D- !>!D31/8- | %2
 D/8 .F .^F .G !>!^G- !>!G .A .B .=B7/8- | B/8 !>!c2 z2 !>![FAcf]2 z15/8 |: %4
 z/8!mf! !1!D !5!B !3!G !2!F !1!E !3!c2 !4!^c7/8- | c/8 !5!d !2!F !4!B !1!D (!5!G !4!F7/8-) F2- | %6
 F/8 !>![EF] [EF]2 !>![EF]- F G [EF]15/8- | [EF]/8 [DF] [DF]2 [DF]- F G [DF]15/8- | %8
 [DF]/8 D B G F E c2 ^c7/8- | c/8!<(! d F B !1!d !2!g !4!b7/8- b2- | %10
 b/8!<)! !1!a !3!c' !4!d' !5![^fe']- e' d' a15/8- | a/8!f! c' b a b- b3 !2!!5![eb]7/8- | %12
 [eb]/8 [eb]2 !3!!5![eg]2 !2!B !3!!5![df]2 !1!F7/8- | %13
 F/8 !5!e2 !5!e !5!d- [Bd] !1!F !3!!5![df]15/8- | [df]/8 [eb]2 [eg]2 B [df]2 F7/8- | %15
 F/8 e2 e d- [Bd]3 [eb]7/8- | [eb]/8 [eb]2 [eg]2 B [df]2 F7/8- | F/8 e2 e d- [Bd] F [df]15/8- | %18
 [df]/8 [eb]2 [eg]2 B [df]2 F7/8- |1 F/8 !>!e2 e !>!d- !>![Bd] G F E7/8- :|2 %20
 E/8 e2 e d- [Bd]2 !>![^FAd]15/8- |: [FAd]/8!mf!{!2!G!1!A} !3!B A G !>!B- !>!B A G15/8- | %22
 G/8 !2!A2 !1!G !>!!2!^F- z !1!A !5!a15/8- | a/8{!1!AB} c B A !>!c- !>!c B A15/8- | %24
 A/8 !3!B2 A G- z !1!d !5!b15/8- | b/8!<(!{GA} B A G A !3!B !1!c2 !2!d7/8- | %26
 d/8!<)!!f! !>!e2 d !>!c- z !1!g !5!e'15/8- | e'/8{cd} !>!.e .d .!1!c .!4!B A G2 A7/8- | %28
 A/8 !>!^F2 A !>![Fd]- [Fd]31/8- | [Fd]/8!mf!{GA} !>!B A G !>!B- B A G15/8- | %30
 G/8 !>!A2 G !>!^F- z !1!d !5!a15/8- | a/8{AB} !>!c B A !>!c- c B A15/8- | %32
 A/8 !>!B2 A !>!G- z d b15/8- | b/8!<(!{GA} !>!B A G A B c2!<)! d7/8- | %34
 d/8!f! !>!e2 d !>!c- z !1!g !5!e'15/8- | e'/8{Bc} !>!d c B !>!A- A c B A7/8- |1 %36
 A/8 !>!G d B G !>!^F A d15/8- :|2 d/8 !>!G2 A B !>!c2- c3/2 (!1!c/4 !2!^c/8- |: %38
 c/8!mf! !3!d2) z2 !1!!3![G=c] !2!!4![B^c]2 !1!!3!!5![FBd]7/8- | %39
 [FBd]/8 [FBd]2 !1!!4![^cg] !>!!2!!3![df]- [df] !>!!1!!5![db]- [db]3/2 (!1!=c/4 !2!^c/8- | %40
 c/8 !>!!3!d2) z2 !1!!3![G=c] !>!!2!!4![B^c]2 !>!!1!!3!!5![FBd]7/8- | %41
 [FBd]/8"_cresc." [FBd]6 [Bdf]15/8- | [Bdf]/8!f! [Be]2 !>!!3![Beg]2 [FB]2 !>!!3![FBd]15/8- | %43
 [FBd]/8 [B,E]2 !>!!3![B,EG]2 [F,B,]2 !>!!3![F,B,D]15/8- | %44
 [F,B,D]/8!mf! !>!!1!!4![^Fc] !2!!3![GB]2 !>![GB]- [GB]31/8- | [GB]/8 !>!!5!d c2 !>!B- B c G15/8- | %46
 G/8 !>!!1!!4![^CG] !2!!3![DF]2 !>!!1!!5![DB]- [DB]31/8- | %47
 [DB]/8 [DB]2!<(! .!1!D .!2!F .!4!B .!1!c .!2!d .!4!f7/8- | %48
 f/8!<)!!f! !>![Aeg] =B c !>![Aef]- [Aef]31/8- | [Aef]/8 [Aef]2 g !>![Aef]- [Aef] g !>![Aef]15/8- | %50
 [Aef]/8{B-d-} !>![Bdg] ^c d !>![Bdf]- [Bdf]31/8- | %51
 [Bdf]/8 [Bdf] g [^Gdf] !>![Ae]- [Ae] f !>![Ae]3/2 (!1!c/4 !2!^c/8- | %52
 c/8!mf! !3!d2) z2 !1!!3![G=c] !2!!4![B^c]2 !1!!3!!5![FBd]7/8- | %53
 [FBd]/8 [FBd]2 !1!!4![^cg] !>!!2!!3![df]- [df] !>!!1!!5![db]- [db]3/2 (!1!=c/4 !2!^c/8- | %54
 c/8 !>!d2) z2 [G=c] !>![B^c]2 !>!!1!!3!!5![FBd]7/8- | %55
 [FBd]/8"_cresc." [FBd]6 !1!!3!!5![Bdf]15/8- | [Bdf]/8!f! [Be]2 !3![Beg]2 [FB]2 !3![FBd]15/8- | %57
 [FBd]/8 [B,E]2 !3![B,EG]2 [F,B,]2 !3![F,B,D]15/8- | [F,B,D]/8 !>!B, C2 !>!D- !>!D C B,15/8- | %59
 B,/8 !>!d !>!c2 !>!B- !>!B A G15/8- | G/8{B-d-} !>![Bdg] f [Bd] !>![Ae]- [Ae] f G A7/8- |1 %61
 A/8 !>!B2 F !>![df]- [df] F [ce]3/2 (!1!c/4 ^c/8-) :|2 c/8 B6 =c15/8- || %63
[K:Db] c/8"^Tempo l'istesso" d6 B c7/8- | c/8 d6 B c7/8- |: %65
 c/8!mf! !1!d!<(! .!2!f .!4!b .!5!d' !1!e .!2!g .!3!b!<)! .!5!e'7/8- | %66
 e'/8 z !2!!4!!5![fbd']- [fbd'] [f=ac'] [fb]2 B15/8- | %67
 B/8!mf! !>!=A2"_cresc." =G !>!_G- G =G =A15/8- | =A/8 !>!c2 B !>!A- A B c15/8- | %69
 c/8 =B2 c4 d15/8- | d/8 =d2 e2 =e2 f15/8- | f/8 [Gcg]2 [Bce]4 [Bc=e]15/8- | %72
 [Bce]/8!ff! f31/8- f4- | %73
 f/8!mf! !>!!1!d!<(! .!2!f .!4!b .!5!d' !>!!1!e .!2!g .!3!b!<)! .!5!e'7/8- | %74
 e'/8 z !>!!2!!4!!5![fbd']- [fbd'] [f=ac'] [fb]2 [fc']15/8- | %75
 [fc']/8!mf! !>![dfd'] .[cc'] .[dd'] !>!.[ee']- .[ee'] .[dd'] [Bb]15/8- | %76
 [Bb]/8 !>!b a g f- f a f15/8- | f/8 !>!!5!c'31/8- c'4- | c'/8 !>!!5!c'4- !>!c'2 !>![F_Acf]15/8- |1 %79
 [F_Acf]/8!f! [_GB_e_g]2 [FBdf]2 [=ac'] a f [fb]7/8- | [fb]/8 [dfb] .f .d .B .=A .B c15/8- :|2 %81
 c/8!f! =d f c2 =e d e f7/8- | f/8 f _e c =A F _E2 F7/8- |:[K:Bb] F/8 .D .B .G .F .E c2 ^c7/8- | %84
 c/8 .d .F .B .D .G F7/8- F2- | F/8 !>![EF] [EF]2 !>![EF]- F G [EF]15/8- | %86
 [EF]/8 !>![DF] [DF]2 !>![DF]- F G [DF]15/8- | [DF]/8 .D .B .G .F .E c2 ^c7/8- | %88
 c/8!<(! .d .F .B .d .g b7/8- b2- | b/8!<)! .a .c' .d' !>![^fe']- e' .d' a15/8- | %90
 a/8!f! .c' .b .a .b- b3 !>![eb]7/8- | [eb]/8 [eb]2 [eg]2 .B !>![df]2 F7/8- | %92
 F/8 !>!e2 .e d- [Bd] F [df]15/8- | [df]/8 !>![eb]2 [eg]2 .B !>![df]2 .F7/8- | %94
 F/8 !>!e2 .e !>!d- [Bd]3 !>![eb]7/8- | [eb]/8 [eb]2 !>![eg]2 .B !>![df]2 .F7/8- | %96
 F/8 !>!e2 .e !>!d- [Bd] .F [df]15/8- | %97
 [df]/8 .!2!!5![eb]2 .!3!!5![eg]2 .!2!B !3!!5![df]2 !1!F7/8- |1 %98
 F/8 !>!e2 .e !>!d- [Bd] .G .F .E7/8- :|2 E/8 e2 e d- [Bd]2 !1!d !2!e7/8- || %100
 e/8 !3!f2 !4!g4 !3!_g15/8- | %101
 g/8 !2!_g !1!f !3!b !1!!3!!5![fbd']- [fbd'] !1!!4![db] !1!!3!!5![eac']15/8- | %102
 [eac']/8 !1!!4![db]2 !2!f !4!b !1!d !3!f !2!B !4!d7/8- | %103
 d/8 !1!F2 !3!F !2!=E !3!F2 !1!D !2!_E7/8- | E/8 !3!F2 !4!G4 !3!_G15/8- | %105
 G/8 !2!_G F B [FBd]- [FBd] [DB] [EAc]15/8- | [EAc]/8 z2 !3!f !5!b !2!=e !5!b !2!_e !5!b7/8- | %107
 b/8 [Bdb]2 z2 !>!!fermata![Bdfb]2 z15/8 x/4 | z8 | z8 |] %110
V:8
 z/8 F, =E,2 !>!_E,- !>!E,31/8- | E,/8 F, E,2 !>!D,- !>!D,31/8- | %2
 D,/8 .F, .^F, .G, !>!^G,- !>!G, .A, .B, .=B,7/8- | B,/8 !>!C2 z2 !>![F,,F,]2 z15/8 |: %4
 z/8 z2 [F,B,]2 z2 [F,A,]15/8- | [F,A,]/8 !>!B,,2 [F,B,]2 !>!B,,2 [F,B,]15/8- | %6
 [F,B,]/8 !>!A,,2 [F,A,]2 !>!F,,2 [F,A,]15/8- | [F,A,]/8 !>!B,,2 [F,B,]2 !>!F,,2 [F,B,]15/8- | %8
 [F,B,]/8 z2 [F,B,]2 z2 [F,A,]15/8- | [F,A,]/8 !>!B,,2 [F,B,]2 !>![B,,B,]2 !>![G,,G,]15/8- | %10
 [G,,G,]/8 !>![^F,,^F,]2 [F,CD]2 !>![D,,D,]2 [F,CD]15/8- | %11
 [F,CD]/8"^sempre" !>![G,,G,]2 [G,B,D]2 !>![D,,D,]2 [G,B,D]15/8- | %12
 [G,B,D]/8 !>![G,,G,]2 !>![E,,E,]2 !>![D,,D,]2 [F,B,D]15/8- | %13
 [F,B,D]/8 !>![F,,F,]2 [F,A,E]2 !>![B,,B,]2 !>![_A,,_A,]15/8- | %14
 [A,,A,]/8 !>![G,,G,]2 !>![E,,E,]2 !>![D,,D,]2 [F,B,D]15/8- | %15
 [F,B,D]/8 !>![F,,F,]2 [F,A,E]2 !>![B,,B,]2 !>![F,,F,]15/8- | %16
 [F,,F,]/8 !>![G,,G,]2 !>![E,,E,]2 !>![D,,D,]2 [F,B,D]15/8- | %17
 [F,B,D]/8 !>![F,,F,]2 [F,A,E]2 !>![B,,B,]2 !>![_A,,_A,]15/8- | %18
 [A,,A,]/8 !>![G,,G,]2 !>![E,,E,]2 !>![D,,D,]2 [F,B,D]15/8- |1 %19
 [F,B,D]/8 !>![F,,F,]2 [F,A,E]2 !>![B,,B,]2 [F,A,]15/8- :|2 %20
 [F,A,]/8 !>![F,,F,]2 [F,A,E]2 !>![B,,B,]2 !>![D,,D,]15/8- |: %21
 [D,,D,]/8 !>![G,,G,]2 [G,B,D]2 !>![D,,D,]2 [G,B,D]15/8- | %22
 [G,B,D]/8 !>![^F,,^F,]2 [F,CD]2 !>![D,,D,]2 [F,CD]15/8- | %23
 [F,CD]/8 !>![A,,A,]2 [^F,CD]2 !>![D,,D,]2 [^F,,F,]15/8- | %24
 [F,,F,]/8 !>![G,,G,]2 [G,B,D]2 !>![B,,,B,,]2 [D,,D,]15/8- | %25
 [D,,D,]/8 !>![G,,G,]2 [G,B,D]2 !>![D,,D,]2 [G,B,D]15/8- | %26
 [G,B,D]/8 !>![C,,C,]2 [G,CE]2 !>![E,,E,]2 [G,CE]15/8- | %27
 [G,CE]/8 !>![C,,C,]2 [G,A,E]2 !>![E,,E,]2 [G,A,C]15/8- | %28
 [G,A,C]/8 !>![D,,D,]2 !>![C,C]2 !>![B,,B,]2 !>![A,,A,]15/8- | %29
 [A,,A,]/8 !>![G,,G,]2 [G,B,D]2 !>![D,,D,]2 [G,B,D]15/8- | %30
 [G,B,D]/8 !>![^F,,^F,]2 [F,CD]2 !>![D,,D,]2 [F,CD]15/8- | %31
 [F,CD]/8 !>![A,,A,]2 [^F,CD]2 !>![D,,D,]2 [^F,,F,]15/8- | %32
 [F,,F,]/8 !>![G,,G,]2 [G,B,D]2 !>![B,,,B,,]2 !>![D,,D,]15/8- | %33
 [D,,D,]/8 !>![G,,G,]2 [G,B,D]2 !>![D,,D,]2 [G,B,D]15/8- | %34
 [G,B,D]/8 !>![C,,C,]2 [G,CE]2 !>![E,,E,]2 [G,CE]15/8- | %35
 [G,CE]/8 !>![D,,D,]2 [G,B,D]2 !>![D,,D,]2 [^F,CD]15/8- |1 %36
 [F,CD]/8 !>![G,,G,]2 [G,B,D]2 !>![D,,D,]2 [^F,CD]15/8- :|2 [F,CD]/8 !>![G,B,D]4 [A,E]31/8- |: %38
 [A,E]/8 !>![B,,,B,,]2 !>![D,,D,]2 !>![E,,E,]2 !>![=E,,=E,]15/8- | %39
 [E,,E,]/8 !>![F,,F,]2 !2!B,2 !>![D,,D,]2 [F,B,D]15/8- | %40
 [F,B,D]/8 !>![B,,,B,,]2 !>![D,,D,]2 !>![E,,E,]2 !>![=E,,=E,]15/8- | %41
 [E,,E,]/8 !>![F,,F,]2 !3!B, C[K:treble] !>!!1!D !4!F !2!_A3/2 (!3!F/4 !2!^F/8- | %42
 F/8 !>!G2-) G3/2 (!3!C/4 !2!^C/4 !>!D2-) D3/2[K:bass] (!3!F,/4 !2!^F,/8- | %43
 F,/8 !>!G,2-) G,3/2 (!3!C,/4 !2!^C,/4 !>!D,31/8-) | %44
 D,/8 !>![E,,E,]2 [G,B,E]2 !>![B,,,B,,]2 [G,B,E]15/8- | %45
 [G,B,E]/8 !>![E,,E,]2 [G,B,E]2 !>![G,,G,]2 !>![E,,E,]15/8- | %46
 [E,,E,]/8 !>![B,,,B,,]2 [F,B,]2 !>!F,,2 [F,B,]15/8- | %47
 [F,B,]/8 !>![B,,,B,,]2 [F,B,]2 !>![D,,D,]2 !>![=B,,,=B,,]15/8- | %48
 [B,,,B,,]/8 !>![C,,C,]2 [F,A,E]2 !>![F,,F,]2 !>![=B,,=B,]15/8- | %49
 [B,,B,]/8 !>![C,C]2 [F,A,E]2 !>![F,,F,]2 [F,A,E]15/8- | %50
 [F,A,E]/8 !>![B,,B,]2 [F,B,D]2 !>![F,,F,]2 [F,B,D]15/8- | %51
 [F,B,D]/8 !>![D,,D,]2 !>![=B,,,=B,,]2 !>![C,,C,]2 [F,A,E]15/8- | %52
 [F,A,E]/8 !>![B,,,B,,]2 !>![D,,D,]2 !>![E,,E,]2 !>![=E,,=E,]15/8- | %53
 [E,,E,]/8 !>![F,,F,]2 !2!B,2 !>![D,,D,]2 [F,B,D]15/8- | %54
 [F,B,D]/8 !>![B,,,B,,]2 !>![D,,D,]2 !>![E,,E,]2 !>![=E,,=E,]15/8- | %55
 [E,,E,]/8 !>![F,,F,]2 !>!!3!B, !>!!2!C[K:treble] !>!!1!D !>!!4!F !>!!2!_A3/2 (!3!F/4 !2!^F/8- | %56
 F/8 !>!G2-) G3/2 (!3!C/4 !2!^C/4 !>!D2-) D3/2[K:bass] (!3!F,/4 !2!^F,/8- | %57
 F,/8 !>!G,2-) G,3/2 (!3!C,/4 !2!^C,/4 !>!D,31/8-) | D,/8 !>!G,, A,,2 !>!B,,- !>!B,, C, D,15/8- | %59
 D,/8 !>!B, !>!x2 !>!G,- !>!G, F, [=E,B,^C]15/8- | %60
 [E,B,C]/8 !>![F,,F,]2 [F,B,D]2 !>![F,,F,]2 [F,A,E]15/8- |1 %61
 [F,A,E]/8 !>![B,,B,]2 [F,B,D]2 !>![F,,F,]2 [F,A,E]15/8- :|2 %62
 [F,A,E]/8 !>![B,,B,]2 !>![F,,F,]2 !>![G,,G,]2 !>![A,,A,]15/8- || %63
[K:Db] [A,,A,]/8 !>![B,,B,]2 [F,B,D]2 !>![F,,F,]2 [F,B,D]15/8- | %64
 [F,B,D]/8 !>![B,,B,]2 [F,B,D]2 !>![F,,F,]2 [F,B,D]15/8- |: [F,B,D]/8 z2 [F,B,D]2 z2 [G,B,E]15/8- | %66
 [G,B,E]/8 !>![F,,F,]2 !>![E,,E,]2 z2 [F,B,D]15/8- | %67
 [F,B,D]/8 !>!_G,2"_cresc." =G, !>!=A,- A, G, _G,15/8- | G,/8 !>!=A,2 B, !>!C- C B, =A,15/8- | %69
 =A,/8 _A,2 =A,4 B,15/8- | B,/8 =B,2 C2 _D2 =D15/8- | D/8 [B,E]2 [G,C]4 [G,C]15/8- | %72
 [G,C]/8 !>!C2 .E .D !>!.C .D C15/8- | C/8 z2 [F,B,D]2 z2 [G,B,E]15/8- | %74
 [G,B,E]/8 !>![F,,F,]2 !>![E,,E,]2 !>![D,,D,]2 !>![=A,,,=A,,]15/8- | %75
 [A,,,A,,]/8 !>![B,,,B,,]2 [F,B,D]2 !>![G,,G,]2 [G,B,E]15/8- | %76
 [G,B,E]/8 !>![A,,A,]2 [A,CG]2 !>![D,,D,]2 [A,DF]15/8- | [A,DF]/8[K:treble] !>!!1!c31/8- c4- | %78
 c/8 !>!!1!c4- c2[K:bass] !>![F,,F,]15/8- |1 %79
 [F,,F,]/8 !>![_E,,_E,]2 !>![F,,F,]2 !>![F,,F,]2 [F,=A,E]15/8- | %80
 [F,A,E]/8 !>![B,,B,]2 [F,B,D]2 !>![C,C]2 [F,=A,E]15/8- :|2 %81
 [F,A,E]/8 !>![=B,,,=B,,]2 !>![C,,C,]2 !>![C,,C,]2 [=G,B,C]15/8- | %82
 [G,B,C]/8 !>![F,,F,]2 !>![_E,,_E,]2 !>![=D,,=D,]2 !>![C,,C,]15/8- |: %83
[K:Bb] [C,,C,]/8 z2 [F,B,]2 z2 [F,A,]15/8- | [F,A,]/8 !>!B,,2 [F,B,]2 !>!B,,2 [F,B,]15/8- | %85
 [F,B,]/8 !>!A,,2 [F,A,]2 !>!F,,2 [F,A,]15/8- | [F,A,]/8 !>!B,,2 [F,B,]2 !>!F,,2 [F,B,]15/8- | %87
 [F,B,]/8 z2 [F,B,]2 z2 [F,A,]15/8- | [F,A,]/8 !>!B,,2 [F,B,]2 !>![B,,B,]2 !>![G,,G,]15/8- | %89
 [G,,G,]/8 !>![^F,,^F,]2 [F,CD]2 !>![D,,D,]2 [F,CD]15/8- | %90
 [F,CD]/8"^sempre" !>![G,,G,]2 [G,B,D]2 !>![D,,D,]2 [G,B,D]15/8- | %91
 [G,B,D]/8 !>![G,,G,]2 !>![E,,E,]2 !>![D,,D,]2 [F,B,D]15/8- | %92
 [F,B,D]/8 !>![F,,F,]2 [F,A,E]2 !>![B,,B,]2 !>![_A,,_A,]15/8- | %93
 [A,,A,]/8 !>![G,,G,]2 !>![E,,E,]2 !>![D,,D,]2 [F,B,D]15/8- | %94
 [F,B,D]/8 !>![F,,F,]2 [F,A,E]2 !>![B,,B,]2 [F,,F,]15/8- | %95
 [F,,F,]/8 !>![G,,G,]2 !>![E,,E,]2 !>![D,,D,]2 [F,B,D]15/8- | %96
 [F,B,D]/8 !>![F,,F,]2 [F,A,E]2 !>![B,,B,]2 [_A,,_A,]15/8- | %97
 [A,,A,]/8 !>![G,,G,]2 !>![E,,E,]2 !>![D,,D,]2 [F,B,D]15/8- |1 %98
 [F,B,D]/8 !>![F,,F,]2 [F,A,E]2 !>![B,,B,]2 [F,A,]15/8- :|2 %99
 [F,A,]/8 !>![F,,F,]2 [F,A,E]2 !>![B,,B,]2[K:treble] !3!B !2!c7/8- || c/8 !1!d2 !2!e4 e15/8- | %101
 e/8 !>!!2!e !1!d3 !>!!4!F2 [F,F]15/8- | [F,F]/8 !>!!3!!1![B,F]2 !2!d2 !>!!4!B2 !1!F15/8- | %103
 F/8[K:bass] !>!!2!D2 !2!D !3!^C !>!!2!D2 !3!B, !2!=C7/8- | C/8 !>!!1!D2 !2!E4 E15/8- | %105
 E/8 !>!!2!E !1!D3 !>!!4!F,2 [F,,F,]15/8- | [F,,F,]/8 !>![B,,B,]31/8- [B,,B,]4- | %107
 x/4 [B,,B,]/8!>(! !>![B,,B,]2!>)! z2 !>!!fermata![B,,,B,,]2 z15/8 | z8 | z8 |] %110
V:9
 x8 | x8 | x8 | x8 |: D4- E31/8- | E/8 D4 !2!^C !1!D7/8- D2- | D/8 x4 E2 x15/8 | x4 D2 x2 | %8
 D4- E31/8- | E/8 D4 d31/8- | d/8 x4 f2 ^f15/8- | f/8 g4- g3 x7/8 | x/8 e !1!B e !1!G B x x F7/8- | %13
 F/8 !3!c !1!G !2!A !3!B- x15/8 x2 | x/8 e B e G B x2 F7/8- | F/8 c G A B- x15/8 x2 | %16
 x/8 e B e G B x2 F7/8- | F/8 c G A B- x15/8 x2 | x/8 e B e G B x2 F7/8- |1 %19
 F/8 c G A B- x15/8 x2 :|2 x/8 c G A B- x31/8 |: x8 | x4 !>!F31/8- | F/8 x8 | x4 G31/8- | G/8 x8 | %26
 x4 c31/8- | c/8 x8 | x8 | x8 | x4 F31/8- | F/8 x8 | x4 G31/8- | G/8 x8 | x4 c31/8- | c/8 x8 |1 %36
 x8 :|2 x8 |: x8 | x8 | x8 | x8 | !3!g !5!b x2 !3!d !5!f x15/8 | x/8 !3!G !5!B x2 !3!D !5!F x15/8 | %44
 x/8 x8 | !1!G3 G- G2 x15/8 | x/8 x8 | x8 | x8 | x8 | x8 | x8 | x8 | x8 | x8 | x8 | %56
 !>!!3!g !5!b x2 !>!!3!d !5!f x15/8 | x/8 !>!!3!G !5!B x2 !>!!3!D !5!F x15/8 | x/8 x8 | x8 | x8 |1 %61
 x8 :|2 x8 ||[K:Db] x8 | x8 |: d4 e31/8- | e/8 d3 c B2 F15/8- | F/8 [CE]31/8- [CE]4- | %68
 [CE]/8 [E_G]31/8- [E_G]4- | [E_G]/8 x8 | x8 | x8 | [=Ac]2 .c .B !>!.=A .B A15/8- | A/8 d4 e31/8- | %74
 e/8 d3 c B2 c15/8- | c/8 x8 | [cg]3 !>!d- d2 d15/8- | d/8 !2!f !1!=e2 !2!f- f !3!=g !4!a15/8- | %78
 a/8 !1!=e !3!=g2 !2!f- f2 x15/8 |1 x4 e3 d7/8- | d/8 x8 :|2 [F_A]2 [F=A]2 [=E_B]2 [EB] [F=A]7/8- | %82
 [F=A]/8 [FA]4 F E2 F7/8- |:[K:Bb] F/8 !>!D4- !>!E31/8- | E/8 D4 .^C D7/8- D2- | D/8 x4 E2 x15/8 | %86
 z4 D2 x2 | D4- E31/8- | E/8 D4 d31/8- | d/8 x4 f2 [^fa]15/8- | [fa]/8 g4- g3 x7/8 | %91
 e .B .e .G .B x2 F7/8- | F/8 .c .G .A !>!B- x31/8 | .e .B .e .G .B x2 F7/8- | %94
 F/8 .c .G .A B- x31/8 | e .B .e .G .B x2 F7/8- | F/8 .c .G .A B- x31/8 | %97
 e .!1!B e .!1!G B x2 F7/8- |1 F/8 .c .G .A B- x31/8 :|2 c G A B- x4 || x8 | x8 | x8 | x8 | x8 | %105
 x8 | !1!D2 [Bf]2 [B=e]2 [B_e]15/8- | [Be]/8 x65/8 | x8 | x8 |] %110
V:10
 x8 | x8 | x8 | x8 |: !>!B,,4 !>!C,31/8- | C,/8 x63/8 | x8 | x8 | !>!B,,4 !>!C,31/8- | C,/8 x63/8 | %10
 x8 | x8 | x8 | x8 | x8 | x8 | x8 | x8 | x8 |1 x8 :|2 x8 |: x8 | x8 | x65/8 | x8 | x65/8 | x8 | %27
 x65/8 | x8 | x8 | x8 | x65/8 | x8 | x65/8 | x8 | x65/8 |1 x8 :|2 x4 =F,2 !>![F,,F,]15/8- |: %38
 [F,,F,]/8 x63/8 | x8 | x8 | x33/8[K:treble] x31/8 | x61/8[K:bass] x3/8 | x8 | x65/8 | x8 | x65/8 | %47
 x8 | x8 | x8 | x8 | x8 | x8 | x8 | x8 | x33/8[K:treble] x31/8 | x61/8[K:bass] x3/8 | x8 | x65/8 | %59
 x8 | x8 |1 x8 :|2 x8 ||[K:Db] x8 | x8 |: !>![B,,B,]4 !>![G,,G,]31/8- | %66
 [G,,G,]/8 x4 !>![D,,D,]31/8- | [D,,D,]/8 C,31/8- C,4- | C,/8 E,31/8- E,4- | E,/8 x63/8 | x8 | x8 | %72
 F,31/8- F,4- | F,/8 !>![B,,B,]4 !>![G,,G,]31/8- | [G,,G,]/8 x63/8 | x65/8 | x8 | %77
 !3!A[K:treble] !4!=G2 !3!A- A !2!B !1!c15/8- | c/8 !4!=G !2!B2 !3!A- !>!A2[K:bass] x15/8 |1 x8 | %80
 x65/8 :|2 x8 | x8 |:[K:Bb] !>!B,,4 !>!C,31/8- | C,/8 x63/8 | x8 | x8 | !>!B,,4 !>!C,31/8- | %88
 C,/8 x63/8 | x8 | x8 | x8 | x8 | x8 | x8 | x8 | x8 | x8 |1 x8 :|2 x49/8[K:treble] x15/8 || x8 | %101
 x8 | x8 |[K:bass] x63/8 | x8 | x8 | F,2 z15/8 z4 | x/4 z/8 !>!F2 x4 x15/8 | x8 | x8 |] %110
V:11
 x8 | x8 | x8 | x8 |: x8 | x8 | x8 | x8 | x8 | x8 | x8 | x8 | x8 | x8 | x8 | x8 | x8 | x8 | x8 |1 %19
 x8 :|2 x8 |: x8 | x8 | x65/8 | x8 | x65/8 | x8 | x65/8 | x8 | x8 | x8 | x65/8 | x8 | x65/8 | x8 | %35
 x65/8 |1 x8 :|2 x8 |: x8 | x8 | x8 | x8 | x8 | x8 | x65/8 | x8 | x65/8 | x8 | x8 | x8 | x8 | x8 | %52
 x8 | x8 | x8 | x8 | x8 | x8 | x65/8 | x8 | x8 |1 x8 :|2 x8 ||[K:Db] x8 | x8 |: x8 | x8 | x8 | x8 | %69
 x65/8 | x8 | x8 | x8 | x8 | x8 | x65/8 | x8 | x8 | x8 |1 x8 | x65/8 :|2 x8 | x8 |:[K:Bb] x8 | x8 | %85
 x8 | x8 | x8 | x8 | x8 | x8 | x8 | x8 | x8 | x8 | x8 | x8 | x8 |1 x8 :|2 x8 || x8 | x8 | x8 | x8 | %104
 x8 | x8 | !4!B31/8- B4- | B/8 x8 | x8 | x8 |] %110
V:12
 x8 | x8 | x8 | x8 |: x8 | x8 | x8 | x8 | x8 | x8 | x8 | x8 | x8 | x8 | x8 | x8 | x8 | x8 | x8 |1 %19
 x8 :|2 x8 |: x8 | x8 | x65/8 | x8 | x65/8 | x8 | x65/8 | x8 | x8 | x8 | x65/8 | x8 | x65/8 | x8 | %35
 x65/8 |1 x8 :|2 x8 |: x8 | x8 | x8 | x33/8[K:treble] x31/8 | x61/8[K:bass] x3/8 | x8 | x65/8 | %45
 x8 | x65/8 | x8 | x8 | x8 | x8 | x8 | x8 | x8 | x8 | x33/8[K:treble] x31/8 | x61/8[K:bass] x3/8 | %57
 x8 | x65/8 | x8 | x8 |1 x8 :|2 x8 ||[K:Db] x8 | x8 |: x8 | x8 | x8 | x8 | x65/8 | x8 | x8 | x8 | %73
 x8 | x8 | x65/8 | x8 |[K:treble] x63/8 | x49/8[K:bass] x15/8 |1 x8 | x65/8 :|2 x8 | x8 |: %83
[K:Bb] x8 | x8 | x8 | x8 | x8 | x8 | x8 | x8 | x8 | x8 | x8 | x8 | x8 | x8 | x8 |1 x8 :|2 %99
 x49/8[K:treble] x15/8 || x8 | x8 | x8 |[K:bass] x63/8 | x8 | x8 | %106
 x17/8 (!>!_A2 !>!G2 !>!_G15/8-) | x/4 G/8 x63/8 | x8 | x8 |] %110

